src/images/Icons/03_fridge.svg

<?xml version="1.0" encoding="UTF-8"?>
<svg width="15px" height="24px" viewBox="0 0 15 24" version="1.1" xmlns="http://www.w3.org/2000/svg" xmlns:xlink="http://www.w3.org/1999/xlink">
    <!-- Generator: Sketch 51.3 (57544) - http://www.bohemiancoding.com/sketch -->
    <title>Group 8</title>
    <desc>Created with Sketch.</desc>
    <defs>
        <polygon id="path-1" points="1.70454545e-05 0.0162102273 14.9855114 0.0162102273 14.9855114 23.5227273 1.70454545e-05 23.5227273"></polygon>
    </defs>
    <g id="Welcome" stroke="none" stroke-width="1" fill="none" fill-rule="evenodd">
        <g id="CLanding" transform="translate(-814.000000, -2705.000000)">
            <g id="Facilities" transform="translate(0.000000, 2129.000000)">
                <g id="Group-5" transform="translate(810.000000, 325.000000)">
                    <g id="Group-20">
                        <g id="Group-8" transform="translate(4.000000, 251.000000)">
                            <g id="Group-3" transform="translate(0.000000, 0.154261)">
                                <mask id="mask-2" fill="white">
                                    <use xlink:href="#path-1"></use>
                                </mask>
                                <g id="Clip-2"></g>
                                <path d="M13.8494489,19.5451875 C13.8494489,19.9929716 13.485017,20.357233 13.037233,20.357233 L1.94814205,20.357233 C1.50052841,20.357233 1.13609659,19.9929716 1.13609659,19.5451875 L1.13609659,8.72609659 L13.8494489,8.72609659 L13.8494489,19.5451875 Z M2.3533125,22.3866648 L12.632233,22.3866648 L12.632233,21.4933125 L2.3533125,21.4933125 L2.3533125,22.3866648 Z M13.037233,0.0162102273 L1.94814205,0.0162102273 C0.8739375,0.0162102273 1.70454545e-05,0.890130682 1.70454545e-05,1.96450568 L1.70454545e-05,6.61569886 L1.13609659,6.61569886 L1.13609659,1.96450568 C1.13609659,1.51672159 1.50052841,1.15228977 1.94814205,1.15228977 L13.037233,1.15228977 C13.485017,1.15228977 13.8494489,1.51672159 13.8494489,1.96450568 L13.8494489,7.59001705 L1.70454545e-05,7.58933523 L1.70454545e-05,19.5451875 C1.70454545e-05,20.360983 0.504392045,21.060017 1.21723295,21.3497898 L1.21723295,22.9546193 C1.21723295,23.2684261 1.47155114,23.5227443 1.7851875,23.5227443 L13.2001875,23.5227443 C13.5139943,23.5227443 13.7683125,23.2684261 13.7683125,22.9546193 L13.7683125,21.3497898 C14.4811534,21.060017 14.9855284,20.360983 14.9855284,19.5451875 L14.9855284,1.96450568 C14.9855284,0.890130682 14.111608,0.0162102273 13.037233,0.0162102273 Z" id="Fill-1" fill="#1D1D1B" mask="url(#mask-2)"></path>
                            </g>
                            <path d="M3.5345625,6.04334659 L3.5345625,2.95965341 C3.5345625,2.64601705 3.28024432,2.39169886 2.9664375,2.39169886 C2.65280114,2.39169886 2.39848295,2.64601705 2.39848295,2.95965341 L2.39848295,6.04334659 C2.39848295,6.35698295 2.65280114,6.61130114 2.9664375,6.61130114 C3.28024432,6.61130114 3.5345625,6.35698295 3.5345625,6.04334659" id="Fill-4" fill="#1D1D1B"></path>
                            <path d="M2.96652273,9.81136364 C2.65288636,9.81136364 2.39839773,10.0656818 2.39839773,10.3794886 L2.39839773,15.9939205 C2.39839773,16.3075568 2.65288636,16.561875 2.96652273,16.561875 C3.28015909,16.561875 3.53464773,16.3075568 3.53464773,15.9939205 L3.53464773,10.3794886 C3.53464773,10.0656818 3.28015909,9.81136364 2.96652273,9.81136364" id="Fill-6" fill="#1D1D1B"></path>
                        </g>
                    </g>
                </g>
            </g>
        </g>
    </g>
</svg>

<svg width="15" height="24" viewBox="0 0 15 24" xmlns="http://www.w3.org/2000/svg" xmlns:xlink="http://www.w3.org/1999/xlink"><defs><path id="a" d="M0 .016h14.986v23.507H0z"/></defs><g fill="none" fill-rule="evenodd"><g transform="translate(0 .154)"><mask id="b" fill="#fff"><use xlink:href="#a"/></mask><path d="M13.85 19.545a.813.813 0 01-.813.812H1.948a.813.813 0 01-.812-.812V8.726H13.85v10.82zM2.352 22.387h10.28v-.894H2.352v.894zM13.037.017H1.948A1.95 1.95 0 000 1.964v4.65h1.136v-4.65c0-.448.365-.813.812-.813h11.09c.447 0 .811.365.811.813V7.59H0v11.955a1.95 1.95 0 001.217 1.805v1.605c0 .313.255.568.568.568H13.2a.568.568 0 00.568-.568V21.35a1.95 1.95 0 001.218-1.805V1.965A1.95 1.95 0 0013.037.016z" fill="#1D1D1B" mask="url(#b)"/></g><path d="M3.535 6.043V2.96a.568.568 0 00-1.137 0v3.083a.568.568 0 001.137 0m-.568 3.768a.568.568 0 00-.569.568v5.615a.568.568 0 001.137 0v-5.615a.568.568 0 00-.568-.568" fill="#1D1D1B"/></g></svg>
